X: 1197
T:Lios na Banriona (A84)
N: page A84
N: heptatonic
R:air
C:Nollaig Casey
S:Taught by Seamus McGuire, Gaelic Roots, Boston 2003
Z:added by Alf warnock alf0@rogers.com - www.alfwarnock.info/alfs
M:4/4
L:1/8
K:G
V:1
| "G"d2g2 "Bm"d3c|"Em"B2AG "D7"A2D2|"G"Bcd2 "Am"cde2|"G"d2cB "D7"A2D2|
"G"g4 "Bm"d3c|"Em"B2AG "D7"A2D2|"G"BcdB "Am"cBAG|"D7"TF3G "G"G4::
ga|\
"G"b2b2 b2ag|"D"a2f2 "Cdim"f2ef|"Em"g3e "A"a3g|"D7"fed^c d4|
"C"e2ge cece|"G"d2gd BdBd|"Am"ceac "G"Bdgd|"Am"cBAd "D7"f3g/2a/2|
"G"g4 "Bm"d3c|"Em"B2AG "D7"A2D2|"G"BcdB "Am"cBAG|"D7"TF3G "G"G2:|
V:2
z4 d2g2|d2cB d4|GAB2 ABc2|B2d2 d4|
z4 d2g2|d2cB d4|GABG EDCA,|D2CA, B,4::
z2|g2g2 g2fe|f2d2 ^d4|e2d2 ^c3B|A2GE F4|
G4 g2ec|G4 g2dB|AceA GBdB|c2A2 d2c2|
B4 A4|G6F2|G4 EDCA,|D2CA, B,2:|
